svgs/youtube_tv.svg

<svg width="192" height="192" viewBox="0 0 192 192" fill="none" xmlns="http://www.w3.org/2000/svg">
<path d="M22 126V42C22 39.7909 23.7909 38 26 38H166C168.209 38 170 39.7909 170 42V126C170 128.209 168.209 130 166 130H26C23.7909 130 22 128.209 22 126Z" stroke="black" stroke-width="12" stroke-linejoin="round"/>
<path d="M52 154H140" stroke="black" stroke-width="12" stroke-linecap="round" stroke-linejoin="round"/>
<path d="M118 84L82 62V84V106L118 84Z" stroke="black" stroke-width="12" stroke-linejoin="round"/>
</svg>

<svg xmlns="http://www.w3.org/2000/svg" width="192" height="192" fill="none" stroke="#000" stroke-width="12" stroke-linejoin="round" xmlns:v="https://vecta.io/nano"><path d="M22 126V42a4 4 0 0 1 4-4h140a4 4 0 0 1 4 4v84a4 4 0 0 1-4 4H26a4 4 0 0 1-4-4z"/><path d="M52 154h88" stroke-linecap="round"/><path d="M118 84L82 62v22 22l36-22z"/></svg>
